huobi.svg

<svg width="85" height="26" viewBox="0 0 85 26" fill="none" xmlns="http://www.w3.org/2000/svg">
<path d="M31.7781 6.72944V13.7854H24.768V7.64057C24.768 7.13556 24.3584 6.72591 23.8534 6.72591H21.4802V23.6172C21.4802 24.1222 21.8899 24.5319 22.3949 24.5319H24.768V16.653H31.7817V23.6137C31.7746 24.1187 32.1772 24.5354 32.6822 24.5425H32.6963H35.0695V7.64057C35.0695 7.13556 34.6599 6.72591 34.1549 6.72591H31.7781V6.72944ZM45.6994 11.1438V19.6089C45.7065 20.3788 45.3039 21.0957 44.64 21.4912C42.7824 22.5648 40.8577 21.2193 40.8577 19.4535V12.0585C40.8577 11.5535 40.448 11.1438 39.943 11.1438H37.5698V19.7572C37.5769 22.533 39.823 24.7791 42.5987 24.7932H43.9478C46.7271 24.7861 48.9802 22.533 48.9873 19.7537V12.0585C48.9873 11.5535 48.5776 11.1438 48.0726 11.1438H45.6994Z" fill="white"/>
<path d="M81.6046 24.5426H83.9778V12.5495C83.9778 12.0445 83.5681 11.6348 83.0631 11.6348H80.69V23.6209C80.6865 24.1259 81.0926 24.5391 81.5976 24.5426H81.6046Z" fill="white"/>
<path d="M84.0281 9.2365C84.4155 8.30127 83.9714 7.22906 83.0361 6.84167C82.1009 6.45428 81.0286 6.89839 80.6413 7.83362C80.2539 8.76886 80.698 9.84105 81.6332 10.2284C82.5685 10.6158 83.6407 10.1717 84.0281 9.2365Z" fill="white"/>
<path d="M57.4702 11.1371C54.0269 11.1371 51.2088 13.5986 51.2088 17.0419V18.903C51.2088 22.3462 54.0269 24.7936 57.4702 24.7936C60.9134 24.7936 63.7316 22.3462 63.7316 18.903V17.0419C63.7352 13.5986 60.917 11.1371 57.4702 11.1371V11.1371ZM60.4296 19.1255C60.4296 20.7535 59.0982 21.8377 57.4667 21.8377C55.8351 21.8377 54.5072 20.7535 54.5072 19.1255V16.8017C54.5072 15.1737 55.8386 14.0895 57.4667 14.0895C59.0947 14.0895 60.4296 15.1737 60.4296 16.8017V19.1255Z" fill="white"/>
<path d="M72.2144 11.1368C71.1831 11.1298 70.1661 11.3628 69.2372 11.8113V7.65827C69.2372 7.15326 68.8276 6.74361 68.3226 6.74361H65.9494V18.9027C65.9494 22.3459 68.7675 24.7932 72.2108 24.7932C75.6541 24.7932 78.4723 22.3459 78.4723 18.9027V17.0415C78.4758 13.5983 75.6647 11.1368 72.2144 11.1368V11.1368ZM75.1774 19.1251C75.1774 20.7532 73.8459 21.8374 72.2144 21.8374C70.5863 21.8374 69.2549 20.7532 69.2549 19.1251V16.8014C69.2549 15.1734 70.5863 14.0892 72.2144 14.0892C73.8424 14.0892 75.1774 15.1734 75.1774 16.8014V19.1251Z" fill="white"/>
<path d="M11.5425 8.18852C11.5425 4.60048 9.79438 1.51039 8.46299 0.50744C8.46299 0.50744 8.36058 0.450935 8.37117 0.595728C8.26169 7.52812 4.71957 9.4069 2.77369 11.9355C-1.71841 17.7766 2.45586 24.1793 6.71488 25.3624C9.08807 26.0263 6.16396 24.1899 5.78609 20.3158C5.32346 15.64 11.5425 12.0661 11.5425 8.18852V8.18852Z" fill="white"/>
<path d="M13.5839 10.551C13.5557 10.5334 13.5168 10.5192 13.4921 10.5651C13.4179 11.4374 12.528 13.3021 11.3979 15.0184C7.5662 20.8313 9.74868 23.6353 10.9777 25.1433C11.691 26.0156 10.9777 25.1433 12.7575 24.2498C14.9577 22.9149 16.3844 20.6053 16.5963 18.0414C16.9459 13.9095 14.4668 11.3068 13.5839 10.551V10.551Z" fill="white"/>
</svg>

<svg xmlns="http://www.w3.org/2000/svg" width="85" height="26" fill="#000"><path d="M31.778 6.729v7.056h-7.01V7.641c0-.505-.41-.915-.915-.915H21.48v16.891c0 .505.41.915.915.915h2.373v-7.879h7.014v6.961c-.007.505.395.922.901.929h.014 2.373V7.641c0-.505-.41-.915-.915-.915h-2.377v.004zm13.921 4.414v8.465a2.17 2.17 0 0 1-1.059 1.882c-1.858 1.074-3.782-.272-3.782-2.038v-7.395c0-.505-.41-.915-.915-.915H37.57v8.613a5.05 5.05 0 0 0 5.029 5.036h1.349c2.779-.007 5.032-2.26 5.039-5.039v-7.695c0-.505-.41-.915-.915-.915h-2.373zm35.906 13.4h2.373V12.55c0-.505-.41-.915-.915-.915H80.69v11.986c-.004.505.403.918.908.922h.007zm2.423-15.306c.387-.935-.057-2.007-.992-2.395s-2.008.057-2.395.992.057 2.007.992 2.395 2.007-.057 2.395-.992zm-26.558 1.9c-3.443 0-6.261 2.461-6.261 5.905v1.861c0 3.443 2.818 5.891 6.261 5.891s6.261-2.447 6.261-5.891v-1.861c.004-3.443-2.815-5.905-6.261-5.905h0zm2.959 7.988c0 1.628-1.331 2.712-2.963 2.712s-2.96-1.084-2.96-2.712v-2.324c0-1.628 1.331-2.712 2.96-2.712s2.963 1.084 2.963 2.712v2.324zm11.785-7.988a6.74 6.74 0 0 0-2.977.675V7.658c0-.505-.41-.915-.915-.915h-2.373v12.159c0 3.443 2.818 5.89 6.261 5.89s6.261-2.447 6.261-5.89v-1.861c.004-3.443-2.808-5.905-6.258-5.905h0zm2.963 7.988c0 1.628-1.332 2.712-2.963 2.712s-2.959-1.084-2.959-2.712v-2.324c0-1.628 1.331-2.712 2.959-2.712s2.963 1.084 2.963 2.712v2.324zM11.543 8.189c0-3.588-1.748-6.678-3.08-7.681 0 0-.102-.057-.092.088-.109 6.932-3.652 8.811-5.597 11.34-4.492 5.841-.318 12.244 3.941 13.427 2.373.664-.551-1.172-.929-5.047-.463-4.676 5.756-8.25 5.756-12.127h0zm2.041 2.362c-.028-.018-.067-.032-.092.014-.074.872-.964 2.737-2.094 4.453-3.832 5.813-1.649 8.617-.42 10.125.713.872 0 0 1.78-.893a8.04 8.04 0 0 0 3.839-6.208c.35-4.132-2.129-6.735-3.012-7.49h0z"/></svg>
